lib/flags/om-oman.svg

<svg xmlns="http://www.w3.org/2000/svg" fill="none" aria-hidden="true" viewBox="0 0 42 30"><g id="Country=OM - Oman, Size=sm (36x24)" filter="url(#filter0_dd_91_26018)"><g clip-path="url(#clip0_91_26018)"><g id="flag"><mask id="mask0_91_26018" width="36" height="24" x="3" y="2" maskUnits="userSpaceOnUse" style="mask-type:alpha"><rect id="mask" width="36" height="24" x="3" y="2" fill="white"/></mask><g mask="url(#mask0_91_26018)"><g id="contents"><path id="background" fill="#F50101" fill-rule="evenodd" d="M3 2V26H39V2H3Z" clip-rule="evenodd"/><mask id="mask1_91_26018" width="36" height="24" x="3" y="2" maskUnits="userSpaceOnUse" style="mask-type:alpha"><path id="background_2" fill="white" fill-rule="evenodd" d="M3 2V26H39V2H3Z" clip-rule="evenodd"/></mask><g mask="url(#mask1_91_26018)"><path id="top" fill="#F7FCFF" fill-rule="evenodd" d="M3 2V10H39V2H3Z" clip-rule="evenodd"/><path id="bottom" fill="#5EAA22" fill-rule="evenodd" d="M3 18V26H39V18H3Z" clip-rule="evenodd"/><rect id="left" width="13.5" height="24" x="3" y="2" fill="#F50101"/><g id="mark"><path id="Combined Shape" fill="#F7FCFF" fill-rule="evenodd" d="M15.1208 3.9971C15.1308 3.90814 15.0193 3.8711 14.9701 3.94586C14.5807 4.53714 13.5497 6.02594 11.8279 7.98629V7.06863C11.6672 6.91342 11.155 6.49584 11.155 6.49584V5.57952L12.0816 4.83413L10.8089 4.00018L9.46754 4.83413L10.4814 5.57952V6.49584C10.4814 6.93524 9.86675 7.06863 9.86675 7.06863L9.7542 7.877C8.15145 6.02702 7.16593 4.59385 6.76898 3.98563C6.71856 3.90839 6.60309 3.9487 6.61809 4.03971C6.73644 4.75755 7.10475 6.41978 8.15452 8.19665H7.87792V8.79402H8.17657C8.27791 9.00171 8.51062 9.14809 8.78276 9.15233C8.97287 9.41305 9.17904 9.67307 9.40261 9.92982C8.88807 9.88459 5.48935 9.62744 5.48935 10.7266C5.48935 11.3827 6.31609 11.73 7.35293 11.9095C6.31017 12.7488 5.32586 13.5386 4.87175 13.9028C4.80171 13.959 4.85058 14.066 4.93828 14.0467C5.73882 13.8712 7.87213 13.3216 9.90247 12.0903L9.96541 12.0904C10.5344 12.0904 10.9301 11.871 11.2051 11.5741C13.2681 13.0708 15.603 13.759 16.6057 14.0032C16.7009 14.0264 16.7476 13.9008 16.6642 13.8493C15.8437 13.343 13.9967 12.1263 12.1081 10.3598L12.1577 10.3081C12.5433 9.90371 12.8792 9.4877 13.172 9.07057C13.2945 9.00691 13.3921 8.91003 13.4487 8.79402H13.7474V8.19665H13.7253L13.7478 8.15688C13.7476 8.15927 13.7475 8.16169 13.7475 8.16413V9.49022C13.7475 9.53824 13.7864 9.57717 13.8344 9.57717H16.2285C16.2765 9.57717 16.3154 9.53824 16.3154 9.49022V8.16413C16.3154 8.11611 16.2765 8.07717 16.2285 8.07717H13.8344C13.8152 8.07717 13.7973 8.08345 13.7829 8.09408C14.7676 6.32005 15.0448 4.67692 15.1208 3.9971ZM5.30987 8.16413C5.30987 8.11611 5.3488 8.07717 5.39682 8.07717H7.79084C7.83887 8.07717 7.8778 8.11611 7.8778 8.16413V9.49022C7.8778 9.53824 7.83887 9.57717 7.79084 9.57717H5.39682C5.3488 9.57717 5.30987 9.53824 5.30987 9.49022V8.16413ZM9.34527 8.56104C9.34527 8.82828 9.0989 9.04492 8.795 9.04492C8.49109 9.04492 8.24473 8.82828 8.24473 8.56104C8.24473 8.29381 8.49109 8.07717 8.795 8.07717C9.0989 8.07717 9.34527 8.29381 9.34527 8.56104ZM12.28 8.56104C12.28 8.82828 12.5264 9.04492 12.8303 9.04492C13.1342 9.04492 13.3806 8.82828 13.3806 8.56104C13.3806 8.29381 13.1342 8.07717 12.8303 8.07717C12.5264 8.07717 12.28 8.29381 12.28 8.56104Z" clip-rule="evenodd"/></g></g></g></g></g></g></g><defs><filter id="filter0_dd_91_26018" width="42" height="30" x="0" y="0" color-interpolation-filters="sRGB" filterUnits="userSpaceOnUse"><feFlood flood-opacity="0" result="BackgroundImageFix"/><feColorMatrix in="SourceAlpha" result="hardAlpha" values="0 0 0 0 0 0 0 0 0 0 0 0 0 0 0 0 0 0 127 0"/><feOffset dy="1"/><feGaussianBlur stdDeviation="1"/><feColorMatrix values="0 0 0 0 0.0627451 0 0 0 0 0.0941176 0 0 0 0 0.156863 0 0 0 0.06 0"/><feBlend in2="BackgroundImageFix" result="effect1_dropShadow_91_26018"/><feColorMatrix in="SourceAlpha" result="hardAlpha" values="0 0 0 0 0 0 0 0 0 0 0 0 0 0 0 0 0 0 127 0"/><feOffset dy="1"/><feGaussianBlur stdDeviation="1.5"/><feColorMatrix values="0 0 0 0 0.0627451 0 0 0 0 0.0941176 0 0 0 0 0.156863 0 0 0 0.1 0"/><feBlend in2="effect1_dropShadow_91_26018" result="effect2_dropShadow_91_26018"/><feBlend in="SourceGraphic" in2="effect2_dropShadow_91_26018" result="shape"/></filter><clipPath id="clip0_91_26018"><rect width="36" height="24" x="3" y="2" fill="white" rx="2"/></clipPath></defs></svg>

<svg xmlns="http://www.w3.org/2000/svg" fill="none" aria-hidden="true" viewBox="0 0 42 30"><g filter="url(#a)"><g clip-path="url(#b)"><mask id="c" width="36" height="24" x="3" y="2" maskUnits="userSpaceOnUse" style="mask-type:alpha"><path fill="#fff" d="M3 2h36v24H3z"/></mask><g mask="url(#c)"><path fill="#F50101" fill-rule="evenodd" d="M3 2v24h36V2H3Z" clip-rule="evenodd"/><mask id="d" width="36" height="24" x="3" y="2" maskUnits="userSpaceOnUse" style="mask-type:alpha"><path fill="#fff" fill-rule="evenodd" d="M3 2v24h36V2H3Z" clip-rule="evenodd"/></mask><g mask="url(#d)"><path fill="#F7FCFF" fill-rule="evenodd" d="M3 2v8h36V2H3Z" clip-rule="evenodd"/><path fill="#5EAA22" fill-rule="evenodd" d="M3 18v8h36v-8H3Z" clip-rule="evenodd"/><path fill="#F50101" d="M3 2h13.5v24H3z"/><path fill="#F7FCFF" fill-rule="evenodd" d="M15.12 3.997c.01-.089-.1-.126-.15-.051-.39.591-1.42 2.08-3.142 4.04V7.07c-.16-.156-.673-.573-.673-.573V5.58l.927-.746L10.809 4l-1.341.834 1.013.746v.916c0 .44-.614.573-.614.573l-.113.808C8.151 6.027 7.166 4.594 6.77 3.986c-.05-.078-.166-.037-.15.054.117.718.486 2.38 1.536 4.157h-.277v.597h.299a.679.679 0 0 0 .606.358c.19.261.396.521.62.778-.515-.045-3.914-.303-3.914.797 0 .656.827 1.003 1.864 1.182-1.043.84-2.027 1.63-2.481 1.994-.07.056-.021.163.066.144.8-.176 2.934-.725 4.964-1.957h.063c.57 0 .965-.219 1.24-.516 2.063 1.497 4.398 2.185 5.4 2.43.096.022.143-.103.06-.155a29.955 29.955 0 0 1-4.557-3.49l.05-.05c.385-.405.721-.821 1.014-1.238a.626.626 0 0 0 .277-.277h.298v-.597h-.022l.023-.04V9.49c0 .048.038.087.086.087h2.395a.087.087 0 0 0 .086-.087V8.164a.087.087 0 0 0-.087-.087h-2.394a.087.087 0 0 0-.051.017c.985-1.774 1.262-3.417 1.338-4.097ZM5.31 8.164c0-.048.039-.087.087-.087H7.79c.048 0 .087.04.087.087V9.49a.087.087 0 0 1-.087.087H5.397a.087.087 0 0 1-.087-.087V8.164Zm4.035.397c0 .267-.246.484-.55.484-.304 0-.55-.217-.55-.484s.246-.484.55-.484c.304 0 .55.217.55.484Zm2.935 0c0 .267.246.484.55.484.304 0 .55-.217.55-.484s-.246-.484-.55-.484c-.304 0-.55.217-.55.484Z" clip-rule="evenodd"/></g></g></g></g><defs><clipPath id="b"><rect width="36" height="24" x="3" y="2" fill="#fff" rx="2"/></clipPath><filter id="a" width="42" height="30" x="0" y="0" color-interpolation-filters="sRGB" filterUnits="userSpaceOnUse"><feFlood flood-opacity="0" result="BackgroundImageFix"/><feColorMatrix in="SourceAlpha" result="hardAlpha" values="0 0 0 0 0 0 0 0 0 0 0 0 0 0 0 0 0 0 127 0"/><feOffset dy="1"/><feGaussianBlur stdDeviation="1"/><feColorMatrix values="0 0 0 0 0.0627451 0 0 0 0 0.0941176 0 0 0 0 0.156863 0 0 0 0.06 0"/><feBlend in2="BackgroundImageFix" result="effect1_dropShadow_91_26018"/><feColorMatrix in="SourceAlpha" result="hardAlpha" values="0 0 0 0 0 0 0 0 0 0 0 0 0 0 0 0 0 0 127 0"/><feOffset dy="1"/><feGaussianBlur stdDeviation="1.5"/><feColorMatrix values="0 0 0 0 0.0627451 0 0 0 0 0.0941176 0 0 0 0 0.156863 0 0 0 0.1 0"/><feBlend in2="effect1_dropShadow_91_26018" result="effect2_dropShadow_91_26018"/><feBlend in="SourceGraphic" in2="effect2_dropShadow_91_26018" result="shape"/></filter></defs></svg>
